X: 8014
T: Connaughtman's Rambles, The
R: jig
M: 6/8
K: Dmajor
|:FAA dAA|BAB dAG|FAA d2f|edB BAG|
F2A dAA|BAB def|gfe f2e|1 dBA B2G:|2 dBA B2g||
|:f2b faa|fef d2e|f2b faa|fed e3|
f2b faa|fef def|gfe f2e|1 dBA B2g:|2 dBA B2G||

